X:1
T:The Stack Of Barley
R:hornpipe
M:4/4
L:1/8
K:A
ag|:~f2fe cfec|B2BA BdcB|A2AB cAce|~f2B2 B2ag|
|~f2fe cfec|B2BA BdcB|A2AB ceBd|1 c2A2 A2ag:|2 c2A2 A4|]
|:cAce ~a2ga|baga fece|abga fece|~f2B2 B4|
|faba a2gf|ecBA AdcB|A2AB ceBd|1 c2A2 A4:|2 c2A2 A2ag|]